app/images/src/icons/save.svg

<svg width="50" height="50" viewBox="0 0 50 50" fill="none" xmlns="http://www.w3.org/2000/svg">
<g clip-path="url(#clip0_235_46648)">
<rect width="50" height="50" fill="#FBE0E0"/>
<path d="M24.5312 15.1538C22.7547 16.396 21.1281 17.1788 19.4453 17.6101C18.6063 17.8257 18.1 17.9054 17.2281 17.9616C16.4313 18.0132 16.3 18.0554 16.1078 18.3366L16 18.496L16.0188 22.8366C16.0375 27.5804 16.0328 27.4351 16.3328 28.6023C17.0219 31.2835 19 33.2288 23.0359 35.1976C24.9672 36.1398 24.9484 36.1351 25.7359 35.7788C29.4063 34.1335 31.5297 32.6148 32.7016 30.8054C33.3063 29.8726 33.6297 29.0195 33.8781 27.6882C33.9672 27.196 33.9719 26.9616 33.9906 22.8366L34.0094 18.496L33.9016 18.3366C33.7094 18.0554 33.5781 18.0132 32.7812 17.9616C31.4734 17.882 30.4328 17.6476 29.1063 17.132C28.0422 16.7195 26.7484 16.0398 25.8953 15.4398C25.2578 14.9945 25.2906 15.0085 25.0047 15.0085C24.7844 15.0085 24.7047 15.0319 24.5312 15.1538ZM26.0312 19.6304C28.5156 20.071 30.4516 22.0163 30.8875 24.5101C30.9766 25.0257 30.9766 25.9913 30.8875 26.507C30.6016 28.157 29.6641 29.582 28.2625 30.5007C27.2594 31.157 26.2188 31.4663 25.0047 31.4663C23.8047 31.4663 22.7266 31.1476 21.7563 30.5101C20.4719 29.6616 19.6234 28.471 19.2016 26.9241C19.0891 26.5023 19.0797 26.3991 19.0797 25.5085C19.0797 24.6226 19.0891 24.5148 19.2016 24.1023C19.5203 22.9304 19.9984 22.0866 20.7906 21.2945C22.1781 19.907 24.1094 19.2929 26.0312 19.6304Z" fill="url(#paint0_linear_235_46648)"/>
<path d="M27.1843 23.2349C27.1609 23.2443 27.0765 23.263 26.9968 23.2818C26.8937 23.3052 26.5 23.6662 25.5531 24.6083L24.2546 25.9068L23.725 25.3818C23.439 25.0958 23.1484 24.838 23.0875 24.8052C22.8484 24.6833 22.4453 24.7443 22.2203 24.9412C22 25.138 21.9203 25.588 22.0656 25.8646C22.1078 25.9396 22.525 26.3849 22.9984 26.8537C23.95 27.7958 24.0531 27.8615 24.4562 27.7583C24.6296 27.7115 24.8593 27.5005 26.2609 26.1037C27.1468 25.2224 27.9015 24.4396 27.9437 24.3646C28.089 24.088 28.0093 23.638 27.789 23.4412C27.6296 23.3005 27.3156 23.1974 27.1843 23.2349Z" fill="url(#paint1_linear_235_46648)"/>
</g>
<defs>
<linearGradient id="paint0_linear_235_46648" x1="16" y1="25.5042" x2="34.0094" y2="25.5042" gradientUnits="userSpaceOnUse">
<stop stop-color="#E81212"/>
<stop offset="1" stop-color="#FCCD05"/>
</linearGradient>
<linearGradient id="paint1_linear_235_46648" x1="21.9921" y1="25.5108" x2="28.0172" y2="25.5108" gradientUnits="userSpaceOnUse">
<stop stop-color="#E81212"/>
<stop offset="1" stop-color="#FCCD05"/>
</linearGradient>
<clipPath id="clip0_235_46648">
<rect width="50" height="50" rx="25" fill="white"/>
</clipPath>
</defs>
</svg>

<svg width="50" height="50" fill="none" xmlns="http://www.w3.org/2000/svg"><g clip-path="url(#a)"><path fill="#FBE0E0" d="M0 0h50v50H0z"/><path d="M24.531 15.154c-1.776 1.242-3.403 2.025-5.086 2.456-.839.216-1.345.295-2.217.352-.797.051-.928.093-1.12.375l-.108.159.019 4.34c.019 4.744.014 4.6.314 5.766.689 2.681 2.667 4.627 6.703 6.596 1.931.942 1.912.937 2.7.58 3.67-1.645 5.794-3.163 6.966-4.973.604-.932.928-1.785 1.176-3.117.09-.492.094-.726.113-4.851l.018-4.341-.107-.16c-.193-.28-.324-.323-1.12-.374-1.309-.08-2.35-.314-3.676-.83-1.064-.413-2.358-1.092-3.21-1.692-.638-.445-.605-.431-.891-.431-.22 0-.3.023-.474.145Zm1.5 4.476a5.99 5.99 0 0 1 4.857 4.88c.089.516.089 1.481 0 1.997a5.957 5.957 0 0 1-2.626 3.994c-1.003.656-2.043.965-3.257.965-1.2 0-2.278-.318-3.249-.956-1.284-.848-2.133-2.039-2.554-3.586-.113-.422-.122-.525-.122-1.415 0-.886.01-.994.122-1.407.318-1.172.796-2.015 1.589-2.808a5.92 5.92 0 0 1 5.24-1.664Z" fill="url(#b)"/><path d="M27.184 23.235c-.023.01-.108.028-.187.047-.103.023-.497.384-1.444 1.326l-1.298 1.299-.53-.525c-.286-.286-.577-.544-.638-.577-.239-.122-.642-.06-.867.136-.22.197-.3.647-.154.924.042.075.459.52.932.989.952.942 1.055 1.008 1.458.904.174-.046.403-.258 1.805-1.654.886-.882 1.64-1.664 1.683-1.74.145-.276.065-.726-.155-.923-.16-.14-.473-.244-.605-.206Z" fill="url(#c)"/></g><defs><linearGradient id="b" x1="16" y1="25.504" x2="34.009" y2="25.504" gradientUnits="userSpaceOnUse"><stop stop-color="#E81212"/><stop offset="1" stop-color="#FCCD05"/></linearGradient><linearGradient id="c" x1="21.992" y1="25.511" x2="28.017" y2="25.511" gradientUnits="userSpaceOnUse"><stop stop-color="#E81212"/><stop offset="1" stop-color="#FCCD05"/></linearGradient><clipPath id="a"><rect width="50" height="50" rx="25" fill="#fff"/></clipPath></defs></svg>
